X: 23100
T: Laura Lynn Cunningham
R: reel
M: 4/4
K: Aminor
|:A2 BG AE E2|DEGA Bdgd|eA A2 EAAB|GBde B2 AG|
eaae g2 ed|BedB dBGB|AE E2 GABd|e2 dB A3G:|
|:EA A2 GB B2|c2 ec dGBG|EAA2 EAAB|GBde B2 AG|
EA A2 GABd|c2 ec dGBG|A2 eA dBGA|AGcB A2 AG|
EA A2 GB B2|c2 ec dGBG|EAA2 EAAB|GBde B2 AG|
eaae g2 ed|BedB dBGB|AE E2 GABd|e2 dB A3G||

